X:1
T:Ballabile, Dance of the Corps de Ballet and the Dwarves
T:Ballabile, Dance of the Corps de Ballet and the Dwarves
T:Swan Lake, Piano Arrangement for 3 hands
T:Hinci
C:Hinci
%%score { ( 1 4 ) | ( 2 5 ) | 3 }
L:1/8
Q:1/4=112
M:2/4
K:F
V:1 treble nm="Piano" snm="Pno."
V:4 treble 
V:2 bass 
V:5 bass 
V:3 treble 
V:1
"^Moderato assai." z4 | z2!ff! [eae']2 | [e^fc'e']2 [d^g=be']2 | ([eac'e']/=b/c'/d'/ e') z | %4
 E>E E^F | G2!ff! [gc'g']2 | [gae'g']2 [f=bd'g']2 | ([cec']/!>(!d'/e'/f'/ g') z | (c/d/e/f/ g) z | %9
 (C/D/E/F/ G) z!>)! |!mp! z4 | z2 .C z | .C z .[CD] z | .[=B,D] z .[B,DG] z | %14
 .[B,^CG] z .[DGB]._E | .[EGB]!ff! x/4 (g/4a/4=b/4 [cegc']) z || %16
[Q:1/4=128]"^Allegro vivo." z2 !fermata!z [fc'f'] | [ee']>[ff'] [ee'][dd'] | %18
 [cc']>[dd'] [cc'][=B=b] | [dd']>[cc'] [Aa][=B=b] | [dd']>[cc'] [Aa][cc'] | %21
 ([cf]/!f![Gc]/A/c/ f/g/a/b/) | (c'/d'/e'/f'/ g'/f'/e'/d'/) | [ac'][gac'] [^fac'][dd'] | %24
 [dg][dd'] [ec'][ac'f'] | [ee']>[ff'] [ee'][dd'] | [cc']>[dd'] [cc'][=B=b] | %27
 [dd']>[cc'] [Aa][=B=b] | [dd']>[cc'] [Aa][cc'] | ([cf]/!f![Gc]/A/c/ f/g/a/b/) | %30
 (c'/d'/e'/f'/ g'/f'/e'/d'/) | [cac'][cgc'] [cac'][ac'f'] | [gc'e'][f=bd'] [egc'] G |: %33
!ff! ([CEGc]/[DG]/E/G/ c/d/e/f/) | (g/a/b/c'/ d')[gc'e'g'] | [c'd'f'a'][fad'] [fad'][dfc'] | %36
 [dfa=b][egc'] [egc'] G | ([CEGc]/[DG]/E/G/ c/d/e/f/) | (g/a/b/c'/ d')[egc'] | %39
 [cfd'][cc'] [c^fd'][cc'] |1 [c'e'][=bd'] [cgc']G :|2 [c'e'][=bd'] [cgc']E || %42
 ([A,CEA]/!f!E/C/E/ A/=B/c/d/) | (e/a/g/f/ e)[a=bd'] | [ae']A A[a=bd'] | [^g=be']E EE | %46
 ([A,CEA]/!f!E/C/E/ A/=B/c/d/) | (e/a/g/f/ e)[a=bd'] | [ae']A A[a=bd'] | [^g=be']!f!E EE | EE EE | %51
 E [=Ba=b]!>![e^ge'] E | EE EE | E [=Ba=b]!>![e^ge'][G=g] | [Gg][Gg] [Gg][Gg] | %55
 [Gg][dc'd'] !>![g=bg'][Gg] | [Gg][Gg] [Gg][Gg] | [Gg][dc'd'] !>![g=bg'][Gg] | %58
!ff! [ec']>[fd'] [ec'][fd'] | [ec']>[fd'] [ec'][fd'] | [ec'][fd'] [ec'][fd'] | %61
 [ege'][gbg'] [cbc'][ff'] | [ee']>[ff'] [ee'][dd'] | [cc']>[dd'] [cc'][=B=b] | %64
 [dd']>[cc'] [Aa][=B=b] | [dd']>[cc'] [Aa][cc'] | ([cf]/!f![Gc]/A/c/ f/g/a/b/) | %67
 (c'/d'/e'/f'/ g'/f'/e'/d'/) |!ff! [ac'][gac'] [^fac'][dd'] | [dg][dd'] [ec'][ac'f'] | %70
 [ee']>[ff'] [ee'][dd'] | [cc']>[dd'] [cc'][=B=b] | [dd']>[cc'] [Aa][=B=b] | %73
 [dd']>[cc'] [Aa][cc'] | ([cf]/!f![Gc]/A/c/ f/g/a/b/) | (c'/d'/e'/f'/ g'/f'/e'/d'/) | %76
!ff! [cac'][^ca^c'] [dad'][gbd'g'] | [dgc'd'][egc'e'][Q:1/4=104] !fermata![fac'f']!pp![DA] |: %78
 !>![FA]3 [FA] | !>![FA]3 [FA] | (!>!f>e d).A | !>![FA]3 [EA] | !>![FA]3 [FA] | !>![FA]3 [FA] | %84
 (!>!d>e d).A |1 !>![FA]3 [EA] :|2 !>![FA]4[Q:1/4=104][Q:1/4=106] |: %87
!pp![Q:1/4=108] .[FGg].[FGg] .[EGc].[EGc] | .[F_Ad].[FAd] .[EG]2 | %89
 .[_E^FA].[D=F=B] .[E^FA].[D=FB] | .[_E^FA].[D=F=B] .[^D^FA].[=EG] | .[FGg].[FGg] .[EGc].[EGc] | %92
!>(! .[F_Ad].[FAd] .[EG]2 | .[_E^FA].[D=F=B] .[E^FA].[D=FB] | .[_E^FA].[=FG]!>)!!ppp! .[=EGc]2 :| %95
!p! !>![EGc]4- | [EGc]4 |!p! !>![EGc]4- | [EGc]4 |!p! !>![EGB]4- | [EGB]4 |!mp! !>![^CGA]4- | %102
 [CGA]2 z [DFA] |:!p! !>![FA]3 [FA] | !>![FA]3 [FA] | (!>!f>e d).A | !>![FA]3 [EA] | %107
 !>![FA]3 [FA] | !>![FA]3 [FA] | (!>!d>e d).A |1 !>![FA]3 [EA] :|2 !>![FA]3!<(! [D^FA] || %112
"_accel."[Q:1/4=112] d>e dA |[Q:1/4=116] d>e dd |[Q:1/4=120] g>a gd |[Q:1/4=124] g>a g!<)!!f!g | %116
!<(! [cc']>[dd'] [ee'][Gg] | [cc']>[dd'] [ee'][Gg] | [cc']>[dd'] [ee'][Gg] | %119
 [cc']>[dd']!<)!!ff! [ee']"_a tempo."[ff'] |[Q:1/4=128] [ee']>[ff'] [ee'][dd'] | %121
 [cc']>[dd'] [cc'][=B=b] | [dd']>[cc'] [Aa][=B=b] | [dd']>[cc'] [Aa][cc'] | %124
 ([cf]/!f![Gc]/A/c/ f/g/a/b/) | (c'/d'/e'/f'/ g'/f'/e'/d'/) |!ff! [ac'][gac'] [^fac'][dd'] | %127
 [dg][dd'] [ec'][ac'f'] | [ee']>[ff'] [ee'][dd'] | [cc']>[dd'] [cc'][=B=b] | %130
 [dd']>[cc'] [Aa][=B=b] | [dd']>[cc'] [Aa][cc'] | ([cf]/!f![Gc]/A/c/ f/g/a/b/) | %133
 (c'/d'/e'/f'/ g'/f'/e'/d'/) |!ff! [cac'][^ca^c'] [dad'][gbd'g'] | [dgc'd'][egc'e'] [fac'f'] z |] %136
V:2
!f! C>C CD | E2 [C,,C,]2 | [E,,E,]2 [E,,E,]2 | (A,,/=B,/C/D/ E)!f! z | z4 | z2 [E,,E,]2 | %6
 [G,,G,]2 [G,,G,]2 | C,/(D/E/F/ G) z | z4 | z4 | (C,,/D,,/E,,/F,,/ G,,) z | z2 .[B,,E,B,] z | %12
 .[A,,F,A,] z .[_A,,^F,_A,] z | .[G,,G,] z .F, z | .E,._E, .D,._D, | .C, z [CE] z || %16
 z2 !fermata!z [C,,C,] | [F,,F,]3 [C,,C,] | [F,,F,]3 [C,,C,] | [F,,F,]3 [C,,C,] | %20
 [F,,F,]3 [C,,C,] | [F,,F,][I:staff -1]F/G/ A/c/f/g/ | a/b/c'/d'/ e'/d'/c'/b/ | %23
!ff![I:staff +1] !>![F,,F,][_E,,_E,] !>![D,,D,][^F,,^F,] | !>![G,,G,]B,, !>!C,[C,,C,] | %25
 [F,,F,]3 [C,,C,] | [F,,F,]3 [C,,C,] | [F,,F,]3 [C,,C,] | [F,,F,]3 [C,,C,] | %29
 [F,,F,][I:staff -1]F/G/ A/c/f/g/ | a/b/c'/d'/ e'/d'/c'/b/ | %31
!ff![I:staff +1] !>![F,,F,][E,,E,] !>![D,,D,][D,,D,] | !>![G,,G,][G,,G,] !>![C,,C,] G, |: %33
 !>![G,,C,E,G,][I:staff -1]C/D/ E/G/c/d/ | e/f/g/a/ b[I:staff +1][B,,B,] | [A,,A,]D DA, | %36
 [G,,G,][C,C] [C,C] G, | !>![G,,C,E,G,][I:staff -1]C/D/ E/G/c/d/ | e/f/g/a/ b[I:staff +1][B,,B,] | %39
 [A,,A,] z [_A,,_A,] z |1 [G,,G,][G,,G,] [C,C]G, :|2 [G,,G,][G,,G,] [C,C]E, || %42
 [A,,C,][I:staff -1]A,/=B,/ C/E/A/=B/ | c/f/e/d/ c!ff![I:staff +1][F,,F,] | [C,,C,]A, A,[F,,F,] | %45
 [E,,E,]E, E,E, | [A,,C,][I:staff -1]A,/=B,/ C/E/A/=B/ | c/f/e/d/ c!ff![I:staff +1][F,,F,] | %48
 [C,,C,]A, A,[F,,F,] | [E,,E,] z z E, | (D,/E,/D,/C,/ =B,,/C,/B,,/A,,/) | %51
 (^G,,/A,,/G,,/^F,,/) !>![E,,E,]E, | (D,/E,/D,/C,/ =B,,/C,/B,,/A,,/) | %53
 (^G,,/A,,/G,,/^F,,/) !>![E,,E,][G,G] |!8va(! (F/G/F/E/ D/E/D/C/) | %55
 (=B,/C/B,/A,/)!8va)! !>![G,,G,][G,G] |!8va(! (F/G/F/E/ D/E/D/C/) | %57
 (=B,/C/B,/A,/)!8va)! !>![G,,G,]G, | !>![B,,B,]3 !>![A,,A,] | !>![B,,B,]3 !>![A,,A,] | %60
 !>![B,,B,]!>![A,,A,] !>![B,,B,]!>![A,,A,] | !>![G,,G,]!>![F,,F,] !>![E,,E,]!>![C,,C,] | %62
 [F,,F,]3 [C,,C,] | [F,,F,]3 [C,,C,] | [F,,F,]3 [C,,C,] | [F,,F,]3 [C,,C,] | %66
 [F,,F,][I:staff -1]F/G/ A/c/f/g/ | a/b/c'/d'/ e'/d'/c'/b/ | %68
[I:staff +1] !>![F,,F,][_E,,_E,] !>![D,,D,][^F,,^F,] | !>![G,,G,]B,, !>!C,[C,,C,] | %70
 [F,,F,]3 [C,,C,] | [F,,F,]3 [C,,C,] | [F,,F,]3 [C,,C,] | [F,,F,]3 [C,,C,] | %74
 [F,,F,][I:staff -1]F/G/ A/c/f/g/ | a/b/c'/d'/ e'/d'/c'/b/ | %76
[I:staff +1] [F,,F,][_E,,_E,] [D,,D,][G,,G,] | [C,,C,][C,,C,] !fermata![F,,F,] z |: (!>!=B,2 ^CD) | %79
 (!>!=B,2 ^CD) | (!>!=B,>^C DE) | (!>!F>E D^C) | (!>!=B,2 ^CD) | (!>!=B,2 ^CD) | (!>!=B,>^C DE) |1 %85
 (!>!F>E D^C) :|2 (!>!F>E DC) |:!pp! .C,.G, .C.G, | .C,.G, .C.G, | .C,.G, .C.G, | .C,.G, .C.G, | %91
 .C,.G, .C.G, | .C,.G, .C.G, | .C,.G, .C.G, | .C,.G, .C.G, :|[K:treble]!>(! .g.g .c.c | %96
 .G.G .C!>)!!pp!.C |!>(! .g.g .c.c | .G.G .C!>)!!pp!.C |!>(! .g.g .^c.c | .G.G .^C!>)!!pp!.C | %101
!>(! .e.e .A.A | .E.E!>)!!pp! .A,2 |:[K:bass] (!>!=B,2 ^CD) | (!>!=B,2 ^CD) | (!>!=B,>^C DE) | %106
 (!>!F>E D^C) | (!>!=B,2 ^CD) | (!>!=B,2 ^CD) | (!>!=B,>^C DE) |1 (!>!F>E D^C) :|2 !>!F>E DC || %112
 [=B,D]3 [CD] | [=B,D] z z A, | [G,D]3 [A,^F] | [G,D] z z [F,G,] | E,D, C,F, | E,D, C,F, | %118
 E,D, C,F, | E,D, C,!>![C,,C,] | [F,,F,]3 [C,,C,] | [F,,F,]3 [C,,C,] | [F,,F,]3 [C,,C,] | %123
 [F,,F,]3 [C,,C,] | [F,,F,][I:staff -1]F/G/ A/c/f/g/ | a/b/c'/d'/ e'/d'/c'/b/ | %126
[I:staff +1] !>![F,,F,][_E,,_E,] !>![D,,D,][^F,,^F,] | !>![G,,G,]B,, !>!C,[C,,C,] | %128
 [F,,F,]3 [C,,C,] | [F,,F,]3 [C,,C,] | [F,,F,]3 [C,,C,] | [F,,F,]3 [C,,C,] | %132
 [F,,F,][I:staff -1]F/G/ A/c/f/g/ | a/b/c'/d'/ e'/d'/c'/b/ | %134
[I:staff +1] [F,,F,][_E,,_E,] [D,,D,][G,,G,] | [C,,C,][C,,C,] [F,,F,] z |] %136
V:3
 z4 | z2 !>![EA]2 | !>![E^Fc]2 !>![E^G=B]2 | !>![EA] z z2 | z4 | z2 !>![G,G]2 | %6
 !>![A,A]2 !>![=B,=B]2 | !>![Cc] z z2 | z4 | z4 | z4 | z4 | z4 | z4 | z4 | z4 || %16
 z2 !fermata!z [Ac] | [Ac]3 [FA] | [FA]3 [FA] | [FA]3 [FA] | [FA]3 [FA] | !>![CFAc] z z z | z4 | %23
 [A,A][A,A] [A,A][DA] | [G,G][DG] [EG][Ac] | [Ac]3 [FA] | [FA]3 [FA] | [FA]3 [FA] | [FA]3 [FA] | %29
 !>![CFAc] z z z | z4 | [CA][CA] [CA][CFc] | [CEc][G,DF] [G,CE] z |: z4 | z2 z [CEG] | %35
 [CFAc] z z [CDF] | [B,DF][CEG] [CEG] z | z4 | z2 z [CEG] | [CF] z [C^F] z |1 [EG]=B G z :|2 %41
 [EG]=B G z || z4 | z2 z [=B,D] | [A,E] z z [=B,D] | [=B,E] z z2 | z4 | z2 z [=B,D] | %48
 [A,E] z z [=B,D] | [=B,E] z z z | z4 | z [A,=B,] !>![^G,E] z | z4 | z [A,=B,] !>![^G,E] z | z4 | %55
 z [CD] !>![=B,G] z | z4 | z [CD] !>![=B,G] z | [Cc]>[Dd] [Cc][Dd] | [Cc]>[Dd] [Cc][Dd] | %60
 [Cc][Dd] [Cc][Dd] | [EG][GB] [CB][Ac] | [Ac]3 [FA] | [FA]3 [FA] | [FA]3 [FA] | [FA]3 [FA] | %66
 !>![CFAc] z z z | z4 | [A,A][A,A] [A,A][DA] | [G,G][DG] [EG][Ac] | [Ac]3 [FA] | [FA]3 [FA] | %72
 [FA]3 [FA] | [FA]3 [FA] | !>![CFAc] z z z | z4 | [A,A][A,A] [A,A][B,G] | %77
 [B,G][CEG] !fermata![Fc] z |: z4 | z4 | z4 | z4 | z4 | z4 | z4 |1 z4 :|2 z4 |:!p! (=B,2 C) z | %88
 z4 | z4 | z4 | (=B,2 C) z | z4 | z4 | z4 :|[K:bass]!p! .G,.G, .C.C | .G,.G, .C,.C, | .G,.G, .C.C | %98
 .G,.G, .C,.C, | .G,.G, .^C.C | .G,.G, .^C,.C, | .E,.E, .A,.A, | .E,.E, .A,,2 |: %103
[K:treble] (12:8:12([aa']/b/a/b/a/b/ a/b/a/b/a/b/) | (12:8:12([aa']/b/a/b/a/b/ a/b/a/b/a/b/) | %105
 (12:8:12([aa']/b/a/b/a/b/ [aa']/b/a/b/a/b/) | (12:8:12([aa']/b/a/b/a/b/ a/b/a/b/a/b/) | %107
 (12:8:12([aa']/b/a/b/a/b/ a/b/a/b/a/b/) | (12:8:12([aa']/b/a/b/a/b/ a/b/a/b/a/b/) | %109
 (12:8:12([aa']/b/a/b/a/b/ [aa']/b/a/b/a/b/) |1 (12:8:12([aa']/b/a/b/a/b/ a/b/a/b/a/b/) :|2 %111
 (6:4:6(a/b/a/b/a/)b/ z2 || z4 | z4 | z4 | z2 z [G=Bdg] | [Gcg]3 [G=Bdg] | [Gcg]3 [G=Bdg] | %118
 [Gcg]3 [G=Bdg] | [Gcg]3 [Ac] | [Ac]3 [FA] | [FA]3 [FA] | [FA]3 [FA] | [FA]3 [FA] | %124
 !>![CFAc] z z z | z4 | [A,A][A,A] [A,A][DA] | [G,G][DG] [EG][Ac] | [Ac]3 [FA] | [FA]3 [FA] | %130
 [FA]3 [FA] | [FA]3 [FA] | !>![CFAc] z z z | z4 | [A,A][A,A] [A,A][B,G] | [B,G][CEG] [Fc] z |] %136
V:4
 x4 | x4 | x4 | x4 | x4 | x4 | x4 | x4 | x4 | x4 | x4 | x4 | x4 | x4 | x4 | x4 || x4 | %17
 [ac']3 [fa] | [fa]3 [fa] | [fa]3 [fa] | [fa]3 [fa] | x4 | x4 | x4 | x4 | [ac']3 [fa] | %26
 [fa]3 [fa] | [fa]3 [fa] | [fa]3 [fa] | x4 | x4 | x4 | x4 |: x4 | x4 | x4 | x4 | x4 | x4 | x4 |1 %40
 x4 :|2 x4 || x4 | x4 | x4 | x4 | x4 | x4 | x4 | x4 | x4 | x4 | x4 | x4 | x4 | x4 | x4 | x4 | x4 | %59
 x4 | x4 | x4 | [ac']3 [fa] | [fa]3 [fa] | [fa]3 [fa] | [fa]3 [fa] | x4 | x4 | x4 | x4 | %70
 [ac']3 [fa] | [fa]3 [fa] | [fa]3 [fa] | [fa]3 [fa] | x4 | x4 | x4 | x4 |: x4 | x4 | [FA]4 | x4 | %82
 x4 | x4 | [FA]4 |1 x4 :|2 x4 |: x4 | x4 | x4 | x4 | x4 | x4 | x4 | x4 :| x4 | x4 | x4 | x4 | x4 | %100
 x4 | x4 | x4 |: x4 | x4 | [FA]4 | x4 | x4 | x4 | [FA]4 |1 x4 :|2 x4 || G3 ^F | G z z [D^Fc] | %114
 [G=Bd]3 c | [G=Bd] z z G | x4 | x4 | x4 | x4 | [ac']3 [fa] | [fa]3 [fa] | [fa]3 [fa] | %123
 [fa]3 [fa] | x4 | x4 | x4 | x4 | [ac']3 [fa] | [fa]3 [fa] | [fa]3 [fa] | [fa]3 [fa] | x4 | x4 | %134
 x4 | x4 |] %136
V:5
 x4 | x4 | x4 | x4 | x4 | x4 | x4 | x4 | x4 | x4 | x4 | x4 | x4 | x4 | x4 | x4 || x4 | x4 | x4 | %19
 x4 | x4 | x4 | x4 | x4 | x4 | x4 | x4 | x4 | x4 | x4 | x4 | x4 | x4 |: x4 | x4 | x4 | x4 | x4 | %38
 x4 | x4 |1 x4 :|2 x4 || x4 | x4 | x4 | x4 | x4 | x4 | x4 | x4 | x4 | x4 | x4 | x4 |!8va(! x4 | %55
 x2!8va)! x2 |!8va(! x4 | x2!8va)! x2 | !//-!E,2 F,2 | !//-!E,2 F,2 | !//-!E,2 F,2 | x4 | x4 | x4 | %64
 x4 | x4 | x4 | x4 | x4 | x4 | x4 | x4 | x4 | x4 | x4 | x4 | x4 | x4 |: x4 | x4 | x4 | x4 | x4 | %83
 x4 | x4 |1 x4 :|2 x4 |: x4 | x4 | x4 | x4 | x4 | x4 | x4 | x4 :|[K:treble] x4 | x4 | x4 | x4 | %99
 x4 | x4 | x4 | x4 |:[K:bass] x4 | x4 | x4 | x4 | x4 | x4 | x4 |1 x4 :|2 x4 || x4 | x4 | x4 | x4 | %116
 x4 | x4 | x4 | x4 | x4 | x4 | x4 | x4 | x4 | x4 | x4 | x4 | x4 | x4 | x4 | x4 | x4 | x4 | x4 | %135
 x4 |] %136

